launcher/android/assets/skins/day/svg/backIcon.svg

<svg enable-background="new 0 0 72.08 76.67" height="76.6667" viewBox="0 0 72.08 76.67" width="72.0833" xmlns="http://www.w3.org/2000/svg"><path d="m0 38.3333 41.25-38.33331001 4.1667 4.16667001-37.08336 34.16664 37.08336 34.1667-4.1667 4.1667z" fill="#8a7d7d" stroke-linejoin="round" stroke-width=".2"/><path d="m26.6667 38.3333 41.25-38.33331001 4.1666 4.16667001-37.0833 34.16664 37.0833 34.1667-4.1666 4.1667z" fill="#8a7d7d" stroke-linejoin="round" stroke-width=".2"/></svg>

﻿<?xml version="1.0" encoding="utf-8"?>
<!DOCTYPE svg PUBLIC "-//W3C//DTD SVG 1.1//EN" "http://www.w3.org/Graphics/SVG/1.1/DTD/svg11.dtd">
<svg xmlns="http://www.w3.org/2000/svg" xmlns:xlink="http://www.w3.org/1999/xlink" version="1.1" baseProfile="full" width="72.0833" height="76.6667" viewBox="0 0 72.08 76.67" enable-background="new 0 0 72.08 76.67" xml:space="preserve">
	<g>
		<path fill="#8A7D7D" fill-opacity="1" stroke-width="0.2" stroke-linejoin="round" d="M 0,38.3333L 41.25,-1.00136e-005L 45.4167,4.16666L 8.33334,38.3333L 45.4167,72.5L 41.25,76.6667L 0,38.3333 Z "/>
		<path fill="#8A7D7D" fill-opacity="1" stroke-width="0.2" stroke-linejoin="round" d="M 26.6667,38.3333L 67.9167,-1.00136e-005L 72.0833,4.16666L 35,38.3333L 72.0833,72.5L 67.9167,76.6667L 26.6667,38.3333 Z "/>
	</g>
</svg>
